svg/fluentui-system-icons/ic_fluent_mail_link_20_filled.svg

<svg width="20" height="20" viewBox="0 0 20 20" fill="none" xmlns="http://www.w3.org/2000/svg">
<path d="M12.5 3C11.1193 3 10 4.11929 10 5.5C10 6.88071 11.1193 8 12.5 8H13C13.2761 8 13.5 7.77614 13.5 7.5C13.5 7.22386 13.2761 7 13 7H12.5C11.6716 7 11 6.32843 11 5.5C11 4.67157 11.6716 4 12.5 4H13C13.2761 4 13.5 3.77614 13.5 3.5C13.5 3.22386 13.2761 3 13 3H12.5ZM16 3C15.7239 3 15.5 3.22386 15.5 3.5C15.5 3.77614 15.7239 4 16 4H16.5C17.3284 4 18 4.67157 18 5.5C18 6.32843 17.3284 7 16.5 7H16C15.7239 7 15.5 7.22386 15.5 7.5C15.5 7.77614 15.7239 8 16 8H16.5C17.8807 8 19 6.88071 19 5.5C19 4.11929 17.8807 3 16.5 3H16ZM12 5.5C12 5.22386 12.2239 5 12.5 5H16.5C16.7761 5 17 5.22386 17 5.5C17 5.77614 16.7761 6 16.5 6H12.5C12.2239 6 12 5.77614 12 5.5ZM9 5.5C9 4.9632 9.12085 4.45463 9.33682 4H4.50008C3.21301 4 2.15311 4.9726 2.01526 6.22293L10.0001 10.9199L13.2639 9H12.5C10.567 9 9 7.433 9 5.5ZM16.5 9H15.2349L10.2536 11.931C10.0971 12.023 9.90304 12.023 9.74657 11.931L2 7.373V14.5C2 15.8807 3.11937 17 4.50008 17H15.5001C16.8808 17 18.0001 15.8807 18.0001 14.5V8.66314C17.5454 8.87914 17.0368 9 16.5 9Z" fill="#212121"/>
</svg>

<svg xmlns="http://www.w3.org/2000/svg" width="20" height="20"><path d="M12.5 3a2.5 2.5 0 0 0 0 5h.5a.5.5 0 0 0 0-1h-.5a1.5 1.5 0 0 1 0-3h.5a.5.5 0 0 0 0-1h-.5ZM16 3a.5.5 0 0 0 0 1h.5a1.5 1.5 0 0 1 0 3H16a.5.5 0 0 0 0 1h.5a2.5 2.5 0 0 0 0-5H16Zm-4 2.5a.5.5 0 0 1 .5-.5h4a.5.5 0 0 1 0 1h-4a.5.5 0 0 1-.5-.5Zm-3 0c0-.537.12-1.045.337-1.5H4.5a2.5 2.5 0 0 0-2.485 2.223L10 10.92 13.264 9H12.5A3.5 3.5 0 0 1 9 5.5ZM16.5 9h-1.265l-4.981 2.931a.5.5 0 0 1-.507 0L2 7.373V14.5A2.5 2.5 0 0 0 4.5 17h11a2.5 2.5 0 0 0 2.5-2.5V8.663A3.487 3.487 0 0 1 16.5 9Z"/></svg>
